packages/core/src/svgs/banana.svg

<svg width="24" height="24" viewBox="0 0 24 24" fill="none" xmlns="http://www.w3.org/2000/svg">
<g clip-path="url(#clip0_31_6733)">
<path d="M0 0H24V24H0V0Z" fill="#FAF4E6"/>
<path d="M5.39997 17.1598C5.33177 17.1598 5.26636 17.1327 5.21814 17.0845C5.16991 17.0363 5.14282 16.9708 5.14282 16.9027L5.14711 16.6455L6.70282 16.6627L6.69425 17.1769L5.39997 17.1598Z" fill="#7D551F"/>
<path d="M5.41293 16.1357C5.34473 16.1357 5.27933 16.1628 5.2311 16.2111C5.18288 16.2593 5.15579 16.3247 5.15579 16.3929L5.14722 16.6457L6.70293 16.6629L6.70722 16.1486L5.41293 16.1357Z" fill="#AC752C"/>
<path d="M8.49431 8.97412C7.97574 8.97412 8.23717 9.74126 9.7886 10.7613C10.7218 11.3848 11.4436 12.277 11.8586 13.3198L13.9286 11.7855C12.3772 9.22698 9.0086 8.97412 8.49431 8.97412Z" fill="#FFCA28"/>
<path d="M13.2215 5.15979C13.2215 4.11836 13.7273 3.85693 13.9973 3.85693C17.233 3.85693 16.6115 10.3412 16.1873 11.9355C15.073 16.1055 9.71583 17.6698 8.37012 17.6698C7.02012 17.6698 6.4844 17.4084 6.2144 16.6241C6.00012 15.9984 6.8444 15.6684 7.29012 15.5826C8.46012 15.2398 11.1215 13.9155 12.4158 11.4126C14.0315 8.28408 13.2215 6.46265 13.2215 5.15979Z" fill="#FFD770"/>
<path d="M13.9972 3.85693C13.7272 3.85693 13.2257 4.11408 13.2257 5.15979C13.2257 5.45122 13.2643 5.76408 13.3114 6.11551C13.4614 7.34122 13.6714 8.98693 12.4114 11.4126C11.1214 13.9155 8.46002 15.2355 7.29002 15.5826C6.84431 15.6684 5.99573 15.9984 6.21431 16.6241C6.46716 17.3526 6.95145 17.6312 8.11288 17.6655C7.99288 17.5241 7.89859 17.3526 7.83002 17.1469C7.61573 16.5212 8.46002 16.1912 8.91002 16.1055C10.0757 15.7584 12.7029 14.6955 13.9972 12.1969C15.2957 9.6855 15.0772 6.9855 14.8072 5.42122C14.6529 4.52122 13.9972 3.85693 13.9972 3.85693Z" fill="#FFEA8C"/>
<path d="M15.9215 12.7158C14.3958 16.303 9.63012 17.6701 8.37012 17.6701C7.02012 17.6701 6.4844 17.4087 6.2144 16.6244C6.00012 15.9987 6.8444 15.6687 7.29012 15.583C8.23726 15.3044 10.1615 14.383 11.5458 12.7158H15.9173H15.9215Z" fill="#FFB300"/>
<path d="M13.7314 12.7158C11.8285 15.5272 7.88567 16.6287 6.75424 16.6287C6.55281 16.6287 6.36853 16.6287 6.20567 16.6115C6.01281 15.9987 6.84853 15.673 7.28996 15.5872C8.2371 15.3087 10.1614 14.3872 11.5457 12.7201H13.7314V12.7158Z" fill="#FFD54F"/>
<path d="M17.5713 15.4245C17.5713 12.583 14.6699 11.6016 11.5627 12.7073C12.5142 13.1316 14.3056 14.2073 14.7213 15.4245C15.0727 16.4445 14.8327 18.253 14.5927 19.4102C14.5499 19.6288 14.7899 19.7959 14.9742 19.6673C16.517 18.5873 17.5713 16.8002 17.5713 15.4288V15.4245Z" fill="#FFCA28"/>
</g>
<defs>
<clipPath id="clip0_31_6733">
<rect width="24" height="24" fill="white"/>
</clipPath>
</defs>
</svg>

<svg xmlns="http://www.w3.org/2000/svg" width="24" height="24" fill="none" viewBox="0 0 24 24"><g clip-path="url(#a)"><path fill="#FAF4E6" d="M0 0h24v24H0z"/><path fill="#7D551F" d="M5.4 17.16a.257.257 0 0 1-.257-.257l.004-.258 1.556.018-.009.514z"/><path fill="#AC752C" d="M5.413 16.136a.257.257 0 0 0-.257.257l-.009.253 1.556.017.004-.514z"/><path fill="#FFCA28" d="M8.494 8.974c-.518 0-.257.767 1.295 1.787a5.54 5.54 0 0 1 2.07 2.559l2.07-1.534c-1.552-2.559-4.92-2.812-5.435-2.812"/><path fill="#FFD770" d="M13.222 5.16c0-1.042.505-1.303.775-1.303 3.236 0 2.614 6.484 2.19 8.078-1.114 4.17-6.471 5.735-7.817 5.735-1.35 0-1.886-.262-2.156-1.046-.214-.626.63-.956 1.076-1.041 1.17-.343 3.831-1.668 5.126-4.17 1.615-3.129.806-4.95.806-6.253"/><path fill="#FFEA8C" d="M13.997 3.857c-.27 0-.771.257-.771 1.303 0 .291.038.604.085.956.15 1.225.36 2.87-.9 5.297-1.29 2.502-3.951 3.823-5.121 4.17-.446.085-1.294.415-1.076 1.041.253.729.737 1.007 1.899 1.042a1.5 1.5 0 0 1-.283-.52c-.214-.625.63-.955 1.08-1.04 1.166-.348 3.793-1.41 5.087-3.91 1.299-2.51 1.08-5.21.81-6.775-.154-.9-.81-1.564-.81-1.564"/><path fill="#FFB300" d="M15.922 12.716C14.396 16.303 9.63 17.67 8.37 17.67c-1.35 0-1.886-.261-2.156-1.046C6 16 6.844 15.67 7.29 15.583c.947-.279 2.872-1.2 4.256-2.867h4.376"/><path fill="#FFD54F" d="M13.731 12.716c-1.902 2.811-5.845 3.913-6.977 3.913-.201 0-.385 0-.548-.018-.193-.612.643-.938 1.084-1.024.947-.278 2.871-1.2 4.256-2.867h2.185z"/><path fill="#FFCA28" d="M17.571 15.425c0-2.842-2.901-3.823-6.008-2.718.951.425 2.743 1.5 3.158 2.717.352 1.02.112 2.829-.128 3.986-.043.219.197.386.381.257 1.543-1.08 2.597-2.867 2.597-4.238z"/></g><defs><clipPath id="a"><path fill="#fff" d="M0 0h24v24H0z"/></clipPath></defs></svg>
